Yaru++/apps/scalable/org.gnome.Polari.svg

<svg height="256" width="256" xmlns="http://www.w3.org/2000/svg" xmlns:xlink="http://www.w3.org/1999/xlink">
  <filter id="filter4500" color-interpolation-filters="sRGB" height="1.028" width="1.021" x="-.01" y="-.01">
    <feGaussianBlur stdDeviation="1.346"/>
  </filter>
  <linearGradient id="linearGradient4358" gradientUnits="userSpaceOnUse" x1="88" x2="488" y1="88" y2="488">
    <stop offset="0" stop-opacity=".588235"/>
    <stop offset="1" stop-opacity=".205556"/>
  </linearGradient>
  <filter id="filter4380" color-interpolation-filters="sRGB" height="1.088" width="1.106" x="-.05" y="-.04">
    <feGaussianBlur stdDeviation="8.48"/>
  </filter>
  <filter id="filter4346" color-interpolation-filters="sRGB" height="1.022" width="1.026" x="-.01" y="-.01">
    <feGaussianBlur stdDeviation="2.12"/>
  </filter>
  <path d="m141.84323 74c-70.59344 0-78.18921 7.250835-77.84323 77.98706v146.01294 146.01294c-.34598 70.73623 7.24979 77.98706 77.84323 77.98706h292.31354c70.59344 0 79.78033-7.27652 77.84323-77.98706v-146.01294-146.01294c0-70.737067-7.24979-77.98706-77.84323-77.98706z" filter="url(#filter4346)" opacity=".1" transform="matrix(.5 0 0 .5 -16.116488 -20.825537)"/>
  <path d="m141.84323 74c-70.59344 0-78.18921 7.250835-77.84323 77.98706v146.01294 146.01294c-.34598 70.73623 7.24979 77.98706 77.84323 77.98706h292.31354c70.59344 0 79.78033-7.27652 77.84323-77.98706v-146.01294-146.01294c0-70.737067-7.24979-77.98706-77.84323-77.98706z" fill="url(#linearGradient4358)" filter="url(#filter4380)" opacity=".3" transform="matrix(.5 0 0 .5 -16.116488 -20.825235)"/>
  <path d="m53.695109 13.174466c-36.098811 0-39.983002 3.69016-39.80608 39.68984v74.310164 74.31016c-.176922 35.99969 3.707269 39.68984 39.80608 39.68984h148.387321c36.09881 0 40.77464-3.70276 39.80608-39.68984v-74.31016-74.310164c0-36.00011-3.70727-39.68984-39.80608-39.68984z" opacity=".1"/>
  <path d="m200.95648 15.174456c35.29673 0 39.09461 3.62542 38.92162 38.99353v73.006474 73.00648c.17299 35.36812-3.62489 38.99353-38.92162 38.99353h-146.156753c-35.29671 0-38.92161-3.625-38.92161-38.99353v-73.00648-73.006474c0-35.36853 3.6249-38.99353 38.92161-38.99353z" fill="#57e389"/>
  <path d="m239.87765 90.254766-197.759766 148.595704c3.471188.1673 7.379239.22162 11.78125.2246l147.056646.0997c35.29672.0239 39.09486-3.62602 38.92187-38.99414v-73.00586z" fill="#fff" opacity=".1"/>
  <path d="m132.66406 147.40039c-14.29675-.17869-23.90367 3.03093-28.83398 8.94727-5.17678 6.16289-7.83008 16.27482-7.83008 30.32617v123.18945 4.92969c0 14.05139 2.6533 24.16133 7.83008 30.32422 4.93031 5.91635 14.53612 8.94922 28.83398 8.94922h33.95703l44.78321 31.61132 44.7832-31.61132h123.14844c14.29779 0 23.90344-3.03287 28.83398-8.94922 5.17678-6.16289 7.83008-16.27283 7.83008-30.32422v-75.88867-52.23047c0-14.05135-2.6533-24.16328-7.83008-30.32617-4.9302-5.91634-14.53619-8.94727-28.83398-8.94727h-23.86328-157.88672z" fill="#80ffad" filter="url(#filter4500)" opacity=".1" transform="matrix(.5 0 0 .5 -.116644 -.825234)"/>
  <path d="m47.883355 103.17477v52.39648c0 7.0257 1.32567 12.08067 3.91406 15.16211 2.46516 2.95818 7.26904 4.47461 14.41797 4.47461h16.978524l22.390621 15.80664 22.39258-15.80664h61.57422c7.1489 0 11.95269-1.51643 14.41797-4.47461 2.58838-3.08144 3.91406-8.13642 3.91406-15.16211v-52.39648z" fill="#e3ffee"/>
  <path d="m66.215335 71.174766c-7.14838-.0893-11.95186 1.59758-14.41702 4.55576-2.58839 3.08144-3.91496 8.13705-3.91496 15.16272v62.213264l35.310424 22.10157 22.391481 15.80573 22.39142-15.80573h.00004l79.90664-60.67507v-23.639764c0-7.02568-1.32646-12.08128-3.91485-15.16272-2.4651-2.95817-7.26813-4.55576-14.41703-4.55576h-11.93132-78.94363z" fill="#fdfdfb"/>
  <path d="m207.88336 114.53301-79.90664 60.67507h61.57476c7.1489 0 11.95176-1.51608 14.41703-4.47426 2.58839-3.08144 3.91485-8.13703 3.91485-15.16272z" fill="#f5ede1" fill-opacity=".996" opacity=".1"/>
  <path d="m47.883355 153.10651v2.46459c0 7.02569 1.32657 12.08128 3.91496 15.16272 2.46516 2.95818 7.31717 5.3106 14.41702 4.47426h16.978444z" fill="#fffbf6" fill-opacity=".996" opacity=".1"/>
  <path d="m66.215385 71.174766c-7.14837-.0893-11.95281 1.59846-14.41797 4.55664-2.58839 3.08144-3.91406 8.13644-3.91406 15.16211v2c0-7.02567 1.32567-12.08067 3.91406-15.16211 2.46516-2.95818 7.2696-4.64598 14.41797-4.55664h32.460945 78.94336 11.93164c7.1489 0 11.95287 1.59847 14.41797 4.55664 2.58839 3.08144 3.91406 8.13643 3.91406 15.16211v-2c0-7.02568-1.32567-12.08067-3.91406-15.16211-2.4651-2.95817-7.26907-4.55664-14.41797-4.55664h-11.93164-78.94336z" fill="#fff"/>
  <path d="m54.805389 15.174466c-35.296728 0-39.09487 3.62603-38.92188 38.99414v2c-.17299-35.36811 3.625152-38.99414 38.92188-38.99414h146.156241c35.29673 0 38.92188 3.62561 38.92188 38.99414v-2c0-35.36853-3.62515-38.99414-38.92188-38.99414z" fill="#fff" opacity=".3"/>
  <path d="m54.810789 239.17447c-35.296731 0-39.094875-3.62603-38.921885-38.99414v-2c-.17299 35.36811 3.625154 38.99414 38.921885 38.99414h146.156241c35.29673 0 38.92188-3.62561 38.92188-38.99414v2c0 35.36853-3.62515 38.99414-38.92188 38.99414z" opacity=".2"/>
  <g enable-background="new" fill="#57e389" transform="matrix(.59401483 0 -.07425185 .59401483 8.18937 127.907836)">
    <path d="m144-44h112v16h-112z"/>
    <path d="m144 4h112v16h-112z"/>
    <g transform="rotate(90)">
      <path d="m-76-232h128v16h-128z"/>
      <path d="m-76-184h128v16h-128z"/>
    </g>
  </g>
</svg>

<?xml version="1.0" encoding="UTF-8" standalone="no"?>
<svg
   xmlns:osb="http://www.openswatchbook.org/uri/2009/osb"
   xmlns:dc="http://purl.org/dc/elements/1.1/"
   xmlns:cc="http://creativecommons.org/ns#"
   xmlns:rdf="http://www.w3.org/1999/02/22-rdf-syntax-ns#"
   xmlns:svg="http://www.w3.org/2000/svg"
   xmlns="http://www.w3.org/2000/svg"
   xmlns:xlink="http://www.w3.org/1999/xlink"
   xmlns:sodipodi="http://sodipodi.sourceforge.net/DTD/sodipodi-0.dtd"
   xmlns:inkscape="http://www.inkscape.org/namespaces/inkscape"
   width="256"
   height="256"
   version="1.1"
   id="svg68"
   sodipodi:docname="messaging-app.svg"
   inkscape:version="0.92.4 (5da689c313, 2019-01-14)">
  <metadata
     id="metadata72">
    <rdf:RDF>
      <cc:Work
         rdf:about="">
        <dc:format>image/svg+xml</dc:format>
        <dc:type
           rdf:resource="http://purl.org/dc/dcmitype/StillImage" />
      </cc:Work>
    </rdf:RDF>
  </metadata>
  <sodipodi:namedview
     pagecolor="#ffffff"
     bordercolor="#666666"
     borderopacity="1"
     objecttolerance="10"
     gridtolerance="10"
     guidetolerance="10"
     inkscape:pageopacity="0"
     inkscape:pageshadow="2"
     inkscape:window-width="1920"
     inkscape:window-height="1016"
     id="namedview70"
     showgrid="false"
     inkscape:zoom="0.921875"
     inkscape:cx="128"
     inkscape:cy="128"
     inkscape:window-x="0"
     inkscape:window-y="27"
     inkscape:window-maximized="1"
     inkscape:current-layer="g34" />
  <defs
     id="defs36">
    <linearGradient
       id="linearGradient5606"
       osb:paint="solid">
      <stop
         id="stop5608"
         offset="0"
         style="stop-color:#000000" />
    </linearGradient>
    <linearGradient
       id="linearGradient4526"
       osb:paint="solid">
      <stop
         id="stop4528"
         offset="0"
         style="stop-color:#ffffff" />
    </linearGradient>
    <linearGradient
       id="linearGradient3600-4"
       osb:paint="gradient">
      <stop
         id="stop3602-7"
         offset="0"
         style="stop-color:#f4f4f4" />
      <stop
         id="stop3604-6"
         offset="1"
         style="stop-color:#dbdbdb" />
    </linearGradient>
    <linearGradient
       id="linearGradient4177"
       x1="121.976"
       x2="108.56"
       y1="330.553"
       y2="348.038"
       gradientTransform="matrix(0.5,0,0,0.5,-0.11664366,-9.8252369)"
       gradientUnits="userSpaceOnUse"
       xlink:href="#linearGradient4120" />
    <linearGradient
       id="linearGradient4120">
      <stop
         style="stop-color:#e6a240;stop-opacity:0.996"
         id="stop4122"
         offset="0" />
      <stop
         style="stop-color:#eab261;stop-opacity:0.27450982"
         id="stop4124"
         offset="1" />
    </linearGradient>
    <linearGradient
       id="linearGradient4164"
       x1="354.037"
       x2="370.342"
       y1="292.996"
       y2="314.245"
       gradientTransform="matrix(0.5,0,0,0.5,-0.11664366,-9.8252369)"
       gradientUnits="userSpaceOnUse"
       xlink:href="#linearGradient4120" />
    <linearGradient
       id="linearGradient4134"
       x1="211.404"
       x2="211.404"
       y1="344.742"
       y2="375.678"
       gradientTransform="matrix(3.7056919,0,0,3.7056919,-677.81184,-1205.1336)"
       gradientUnits="userSpaceOnUse"
       xlink:href="#linearGradient4289" />
    <linearGradient
       id="linearGradient4289">
      <stop
         id="stop4291"
         offset="0"
         style="stop-color:#fdfdfb" />
      <stop
         id="stop4293"
         offset="1"
         style="stop-color:#f0e9df" />
    </linearGradient>
    <linearGradient
       id="linearGradient4143"
       x1="297.987"
       x2="299.397"
       y1="344.067"
       y2="141.4"
       gradientTransform="matrix(0.5,0,0,0.5,-0.11664366,-0.82523389)"
       gradientUnits="userSpaceOnUse"
       xlink:href="#linearGradient4155" />
    <linearGradient
       id="linearGradient4155">
      <stop
         id="stop4318-2"
         offset="0"
         style="stop-color:#f3e6d2;stop-opacity:0.99607843" />
      <stop
         id="stop4320-4"
         offset="1"
         style="stop-color:#f7f4ee" />
    </linearGradient>
    <filter
       style="color-interpolation-filters:sRGB"
       id="filter4500"
       width="1.021"
       height="1.028"
       x="-.01"
       y="-.01">
      <feGaussianBlur
         id="feGaussianBlur4502"
         stdDeviation="1.346" />
    </filter>
    <linearGradient
       id="linearGradient1694"
       x1="39.998"
       x2="263.998"
       y1="267.997"
       y2="43.997"
       gradientTransform="rotate(90,154.35167,129.52884)"
       gradientUnits="userSpaceOnUse"
       xlink:href="#linearGradient2808" />
    <linearGradient
       id="linearGradient2808">
      <stop
         style="stop-color:#f4843f"
         id="stop2804"
         offset="0" />
      <stop
         style="stop-color:#f8ae34"
         id="stop2806"
         offset="1" />
    </linearGradient>
    <linearGradient
       id="linearGradient4358"
       x1="88"
       x2="488"
       y1="88"
       y2="488"
       gradientUnits="userSpaceOnUse"
       xlink:href="#linearGradient4360" />
    <linearGradient
       id="linearGradient4360">
      <stop
         id="stop4362"
         offset="0"
         style="stop-color:#000000;stop-opacity:0.58823532" />
      <stop
         id="stop4366"
         offset="1"
         style="stop-color:#000000;stop-opacity:0.20555556" />
    </linearGradient>
    <filter
       style="color-interpolation-filters:sRGB"
       id="filter4380"
       width="1.106"
       height="1.088"
       x="-.05"
       y="-.04">
      <feGaussianBlur
         id="feGaussianBlur4382"
         stdDeviation="8.48" />
    </filter>
    <filter
       style="color-interpolation-filters:sRGB"
       id="filter4346"
       width="1.026"
       height="1.022"
       x="-.01"
       y="-.01">
      <feGaussianBlur
         id="feGaussianBlur4348"
         stdDeviation="2.12" />
    </filter>
    <clipPath
       clipPathUnits="userSpaceOnUse"
       id="clipPath9814-1">
      <path
         id="path3"
         d="M 596.05078,612 C 591.59109,612 588,615.59109 588,620.05078 v 15.89844 c 0,4.44257 3.56412,8.0214 8,8.04883 V 652 l 8,-8 h 19.94922 C 628.40891,644 632,640.40891 632,635.94922 V 620.05078 C 632,615.59109 628.40891,612 623.94922,612 Z"
         style="fill:#ffffff;fill-rule:evenodd" />
    </clipPath>
  </defs>
  <path
     style="opacity:0.1;filter:url(#filter4346)"
     d="M 141.84323,74 C 71.24979,74 63.65402,81.250835 64,151.98706 V 298 444.01294 C 63.65402,514.74917 71.24979,522 141.84323,522 H 434.15677 C 504.75021,522 513.9371,514.72348 512,444.01294 V 298 151.98706 C 512,81.249993 504.75021,74 434.15677,74 Z"
     transform="matrix(0.5,0,0,0.5,-16.116488,-20.825537)"
     id="path38" />
  <path
     d="M 141.84323,74 C 71.24979,74 63.65402,81.250835 64,151.98706 V 298 444.01294 C 63.65402,514.74917 71.24979,522 141.84323,522 H 434.15677 C 504.75021,522 513.9371,514.72348 512,444.01294 V 298 151.98706 C 512,81.249993 504.75021,74 434.15677,74 Z"
     transform="matrix(0.5,0,0,0.5,-16.116488,-20.825235)"
     style="opacity:0.3;fill:url(#linearGradient4358);filter:url(#filter4380)"
     id="path40" />
  <path
     style="opacity:0.1"
     d="m 53.695109,13.174466 c -36.098811,0 -39.983002,3.69016 -39.80608,39.68984 v 74.310164 74.31016 c -0.176922,35.99969 3.707269,39.68984 39.80608,39.68984 H 202.08243 c 36.09881,0 40.77464,-3.70276 39.80608,-39.68984 V 127.17447 52.864306 c 0,-36.00011 -3.70727,-39.68984 -39.80608,-39.68984 z"
     id="path42" />
  <path
     style="fill:#57e389;fill-opacity:1"
     d="m 200.95648,15.174456 c 35.29673,0 39.09461,3.62542 38.92162,38.99353 v 73.006474 73.00648 c 0.17299,35.36812 -3.62489,38.99353 -38.92162,38.99353 H 54.799727 c -35.29671,0 -38.92161,-3.625 -38.92161,-38.99353 V 127.17446 54.167986 c 0,-35.36853 3.6249,-38.99353 38.92161,-38.99353 z"
     id="path44" />
  <path
     style="opacity:0.1;fill:#ffffff"
     d="M 239.87765,90.254766 42.117884,238.85047 c 3.471188,0.1673 7.379239,0.22162 11.78125,0.2246 l 147.056646,0.0997 c 35.29672,0.0239 39.09486,-3.62602 38.92187,-38.99414 v -73.00586 z"
     id="path46" />
  <path
     d="m 132.66406,147.40039 c -14.29675,-0.17869 -23.90367,3.03093 -28.83398,8.94727 C 98.6533,162.51055 96,172.62248 96,186.67383 v 123.18945 4.92969 c 0,14.05139 2.6533,24.16133 7.83008,30.32422 4.93031,5.91635 14.53612,8.94922 28.83398,8.94922 h 33.95703 l 44.78321,31.61132 44.7832,-31.61132 h 123.14844 c 14.29779,0 23.90344,-3.03287 28.83398,-8.94922 C 413.3467,338.9543 416,328.84436 416,314.79297 V 238.9043 186.67383 c 0,-14.05135 -2.6533,-24.16328 -7.83008,-30.32617 -4.9302,-5.91634 -14.53619,-8.94727 -28.83398,-8.94727 H 355.47266 197.58594 Z"
     transform="matrix(0.5,0,0,0.5,-0.11664366,-0.82523389)"
     style="opacity:0.1;filter:url(#filter4500);fill:#80ffad;fill-opacity:1"
     id="path48" />
  <path
     style="fill:#e3ffee;fill-opacity:1"
     d="m 47.883355,103.17477 v 52.39648 c 0,7.0257 1.32567,12.08067 3.91406,15.16211 2.46516,2.95818 7.26904,4.47461 14.41797,4.47461 h 16.978524 l 22.390621,15.80664 22.39258,-15.80664 h 61.57422 c 7.1489,0 11.95269,-1.51643 14.41797,-4.47461 2.58838,-3.08144 3.91406,-8.13642 3.91406,-15.16211 v -52.39648 z"
     id="path50" />
  <path
     style="fill:#fdfdfb;fill-opacity:1"
     d="m 66.215335,71.174766 c -7.14838,-0.0893 -11.95186,1.59758 -14.41702,4.55576 -2.58839,3.08144 -3.91496,8.13705 -3.91496,15.16272 v 62.213264 l 35.310424,22.10157 22.391481,15.80573 22.39142,-15.80573 h 4e-5 l 79.90664,-60.67507 V 90.893246 c 0,-7.02568 -1.32646,-12.08128 -3.91485,-15.16272 -2.4651,-2.95817 -7.26813,-4.55576 -14.41703,-4.55576 H 177.62016 98.67653 Z"
     id="path52" />
  <path
     style="opacity:0.1;fill:#f5ede1;fill-opacity:0.99599999"
     d="m 207.88336,114.53301 -79.90664,60.67507 h 61.57476 c 7.1489,0 11.95176,-1.51608 14.41703,-4.47426 2.58839,-3.08144 3.91485,-8.13703 3.91485,-15.16272 z"
     id="path56" />
  <path
     style="opacity:0.1;fill:#fffbf6;fill-opacity:0.99599999"
     d="m 47.883355,153.10651 v 2.46459 c 0,7.02569 1.32657,12.08128 3.91496,15.16272 2.46516,2.95818 7.31717,5.3106 14.41702,4.47426 h 16.978444 z"
     id="path58" />
  <path
     style="fill:#ffffff"
     d="m 66.215385,71.174766 c -7.14837,-0.0893 -11.95281,1.59846 -14.41797,4.55664 -2.58839,3.08144 -3.91406,8.13644 -3.91406,15.16211 v 2 c 0,-7.02567 1.32567,-12.08067 3.91406,-15.16211 2.46516,-2.95818 7.2696,-4.64598 14.41797,-4.55664 h 32.460945 78.94336 11.93164 c 7.1489,0 11.95287,1.59847 14.41797,4.55664 2.58839,3.08144 3.91406,8.13643 3.91406,15.16211 v -2 c 0,-7.02568 -1.32567,-12.08067 -3.91406,-15.16211 -2.4651,-2.95817 -7.26907,-4.55664 -14.41797,-4.55664 H 177.61969 98.67633 Z"
     id="path62" />
  <path
     style="opacity:0.3;fill:#ffffff"
     d="m 54.805389,15.174466 c -35.296728,0 -39.09487,3.62603 -38.92188,38.99414 v 2 c -0.17299,-35.36811 3.625152,-38.99414 38.92188,-38.99414 H 200.96163 c 35.29673,0 38.92188,3.62561 38.92188,38.99414 v -2 c 0,-35.36853 -3.62515,-38.99414 -38.92188,-38.99414 z"
     id="path64" />
  <path
     style="opacity:0.2"
     d="m 54.810789,239.17447 c -35.296731,0 -39.094875,-3.62603 -38.921885,-38.99414 v -2 c -0.17299,35.36811 3.625154,38.99414 38.921885,38.99414 H 200.96703 c 35.29673,0 38.92188,-3.62561 38.92188,-38.99414 v 2 c 0,35.36853 -3.62515,38.99414 -38.92188,38.99414 z"
     id="path66" />
  <g
     style="enable-background:new"
     id="g920"
     transform="translate(-192.00001,50.237285)">
    <g
       transform="translate(0,-172)"
       id="layer1">
      <g
         id="layer9">
        <g
           id="g34"
           transform="translate(51.00001,15.000001)">
          <g
             id="g32"
             style="fill:#57e389;fill-opacity:1;enable-background:new"
             transform="matrix(0.59401483,0,-0.07425185,0.59401483,149.18937,234.67055)">
            <rect
               id="rect24"
               style="fill:#57e389;fill-opacity:1"
               ry="0"
               rx="0"
               y="-44"
               x="144"
               height="16"
               width="112" />
            <rect
               id="rect26"
               style="fill:#57e389;fill-opacity:1"
               ry="0"
               rx="0"
               y="4"
               x="144"
               height="16"
               width="112" />
            <rect
               id="rect28"
               style="fill:#57e389;fill-opacity:1"
               transform="rotate(90)"
               ry="0"
               rx="0"
               y="-232"
               x="-76"
               height="16"
               width="128" />
            <rect
               id="rect30"
               style="fill:#57e389;fill-opacity:1"
               transform="rotate(90)"
               ry="0"
               rx="0"
               y="-184"
               x="-76"
               height="16"
               width="128" />
          </g>
        </g>
      </g>
    </g>
  </g>
</svg>
